!!!COA:	Josquin des Prez
!!!CDT:	~1450-1521/08/27
!!!OPR:	Missa Mon seul plaisir
!!!ONM:	2
!!!OTL:	Gloria
!!!AGN:	Mass; Gloria
!!!SCT:	NJE 9.2
!!!SCA:	New Josquin Edition 9.2
!!!voices:	4
!!!voices-OPR:	4
**kern	**kern
*staff2	*staff1
*Ivox	*Ivox
*I"Bassus	*I"Tenor
*I'B	*I'T
*>[A,B,C]	*>[A,B,C]
*>A	*>A
*clefF4	*clefGv2
*k[]	*k[]
*M2/1	*M2/1
*met(C|)	*met(C|)
=1-	=1-
!!LO:TX:Z=12:t=[Only T and B are extant]
0G	1G
.	1G
=2	=2
1D	1F
1D	1F
=3	=3
1E	1G
1C	4A/
.	4G/
.	[2c\
=4	=4
1G	2c\]
.	4B\
.	4A/
2G\	1B
2G\	.
=5	=5
1C	1c
2r	2r
2C/	2c\
=6	=6
2G\	2B\
2F\	2A/
2G\	2B\
2E\	2G/
=7	=7
1D	1A
2r	2r
2D\	2A/
=8	=8
2G\	2B\
2G\	2B\
2C/	2c\
2C/	2c\
=9	=9
2G\	2d\
2E\	2e\
2F\	2d\
2G\	2d\
=10	=10
1C	1c
2r	1c
[2C/	.
=11	=11
2C/]	2c\
2C/	1c
2C/	.
2C/	2c\
=12	=12
1AA	1c
2AA/	2r
2AA/	2c\
=13	=13
2AA/	2c\
1D	2A/
.	2B\
2C/	2c\
=14	=14
2.BB/	2.d\
4AA/	4c\
1GG	4B\
.	4A/
.	2G/
=15	=15
1G	1B
1D	1A
=16	=16
1GG	1G
1C	2r
.	2G/
=17	=17
2AA/	1A
1C	.
.	2G/
2C/	2E/
=18	=18
2AA/	2A/
2.C/	2G/
.	2c\
4D\	.
4E\	4B\
4F\	4A/
=19	=19
2G\	2B\
2E\	2G/
1D	2A/
.	2F/
=20	=20
1C	1G
2r	2r
2C/	2c\
=21	=21
1G	2d\
.	2B\
1A	1c
=22	=22
1.G	1d
.	2G/
2D\	2d\
=23	=23
2E\	2B\
2C/	2c\
1D	1A
=24	=24
1GG	0G
2r	.
2GG/	.
=25	=25
2C/	0r
2C/	.
2C/	.
2C/	.
=26	=26
1D	0r
2C/	.
2D\	.
=27	=27
1GG	0r
1AA	.
=28	=28
2GG/	1r
2C/	.
2C/	2G/
2C/	[2c\
=29	=29
2AA/	2c\]
2AA/	2c\
2D\	2d\
2C/	[2e\
=30	=30
2E\	2e\]
2F\	2c\
1D	2.d\
.	4c\
=31	=31
2G\	4B\
.	4A/
4F\	2G/
4E\	.
4D\	1A
4C/	.
2D\	.
=32	=32
0GG	1G
.	1r
=33	=33
3%2GV	3%2BV
3%2G	3%2B
3%2GZ	3%2BZ
=34	=34
3%2DV	3%2AV
3%2G	3%2B
3%2EZ	3%2cZ
=35	=35
3%2FV	3%2.dV
3%2D	.
.	3c\
[3%2GZ	3B\
.	3A/Z
=36	=36
3G\]V	3%2GV
3F\	.
3E\	3%2.d
3D\	.
3%2EZ	.
.	3c\Z
=37	=37
3%2CV	3%2.cV
3%4DZ	.
.	6B\
.	6A/
.	3%2BZ
=38	=38
1.C	1c
.	1r
4BB/	.
4AA/	.
=39	=39
1GG	2.d\
.	4c\
1G	4B\
.	4A/
.	[2B\
=40	=40
1F	2B\]
.	1A
1E	.
.	2G/
=41	=41
0D;l	0A;l
!!LO:LB:i:g=z
=42||	=42||
*>B	*>B
*clefF4	*clefGv2
*k[]	*k[]
*M2/1	*M2/1
*met(C|)	*met(C|)
!!section: Domine Deus
!!!OMD: Domine Deus
1GG	0r
2GG/	.
2GG/	.
=43	=43
1C	0r
2C/	.
2C/	.
=44	=44
1AA	0r
2AA/	.
2AA/	.
=45	=45
2.D\	0r
4C/	.
4D\	.
4C/	.
4BB/	.
4AA/	.
=46	=46
1GG	0r
2r	.
2F\	.
=47	=47
2E\	0r
2.G\	.
4F\	.
4E\	.
4D\	.
=48	=48
2.C/	0r
4BB/	.
2C/	.
2AA/	.
=49	=49
2.D\	0r
4C/	.
4D\	.
4C/	.
4BB/	.
4AA/	.
=50	=50
2GG/	0r
2BB/	.
1AA	.
=51	=51
1GG	0r
2r	.
[2G\	.
=52	=52
2G\]	0r
4F\	.
4E\	.
2F\	.
[2G\	.
=53	=53
4G\]	0r
4F\	.
4E\	.
4D\	.
2C/	.
2E\	.
=54	=54
2D\	0r
2C/	.
2G\	.
4F\	.
4E\	.
=55	=55
2D\	0r
2F\	.
1E	.
=56	=56
1D	0r
2r	.
2AA/	.
=57	=57
2D\	0r
2F\	.
1E	.
=58	=58
2D\	0r
4C/	.
4BB/	.
2AA/	.
2GG/	.
=59	=59
2G\	0r
4F\	.
4E\	.
2F\	.
2G\	.
=60	=60
2E\	0r
4D\	.
4C/	.
2D\	.
2E\	.
=61	=61
2C/	0r
2E\	.
2D\	.
2C/	.
=62	=62
1G	0r
2F\	.
[2E\	.
=63	=63
4E\]	0r
4D\	.
4C/	.
4BB/	.
2AA/	.
2D\	.
=64	=64
2C/	0r
2D\	.
1E	.
=65	=65
0D	0r
=66	=66
2r	0r
1F	.
4E\	.
4D\	.
=67	=67
4C/	0r
4D\	.
4E\	.
4F\	.
2G\	.
4F\	.
4E\	.
=68	=68
2.D\	0r
4E\	.
2F\	.
4E\	.
4D\	.
=69	=69
2.C/	0r
4D\	.
2E\	.
2C/	.
=70	=70
2.D\	0r
4C/	.
4BB/	.
4AA/	.
[2GG/	.
=71	=71
2GG/]	0r
1G	.
2F#i\	.
=72	=72
0G;l	0r
!!LO:LB:i:g=z
=73||	=73||
*>C	*>C
*clefF4	*clefGv2
*k[]	*k[]
*M2/1	*M2/1
*met(C|)	*met(C|)
!!section: Qui tollis
!!!OMD: Qui tollis
0G	0G
=74	=74
1D	1F
1D	1F
=75	=75
1E	1G
1E	1G
=76	=76
0D	1A
.	1A
=77	=77
3%2.GGV	3%2.GV
3%2G	3%2B
3G\Z	3B\Z
=78	=78
3%2DV	3A/V
.	3%2d
3F\	.
3E\	3%2c
3%2DZ	.
.	3B\Z
=79	=79
2C/	1c
2C/	.
2AA/	2r
2AA/	2c\
=80	=80
2D\	2A/
2D\	2A/
2GG/	2B\
2D\	2A/
=81	=81
2C/	4c\
.	4B\
2E\	4A/
.	4G/
1D	1A
=82	=82
[0GG	1G
.	2r
.	[2d\
=83	=83
1GG]	1d]
2r	1B
[2G\	.
=84	=84
2G\]	2r
2G\	2B\
2G\	1d
2G\	.
=85	=85
2G\	2B\
2G\	2B\
2G\	1d
2G\	.
=86	=86
1G	2B\
.	2B\
1G	4G/
.	4A/
.	4B\
.	4c\
=87	=87
1D	2d\
.	4c\
.	4B\
1r	1A
=88	=88
0r	2G/
.	2.d\
.	4c\
.	2B\
=89	=89
1r	1A
1D	2r
.	2A/
=90	=90
2G\	2B\
2F\	2A/
2G\	2B\
2E\	2c\
=91	=91
2F\	2A/
1D	1B
4C/	4A/
4BB/	4G/
=92	=92
2AA/	2F/
2GG/	1G
1AA	.
.	2F#i/
=93	=93
1GG	1G
3%2GGV	3%2GV
3G\Z	3B\Z
=94	=94
3%2FV	3A/V
.	3%2c
3A\	.
3G\	3d\
3E\	3e\
3G\Z	3d\Z
=95	=95
3%2DV	3%2dV
3G\	3B\
3%2F	3A/
.	3%2cZ
3A\Z	.
=96	=96
3G\V	3%2dV
3D\	.
3F\	3c\
3G\	3B\
3%2DZ	3%2AZ
=97	=97
[0GG	0G
=98	=98
0GG]	2r
.	2B\
.	2B\
.	2G/
=99	=99
0r	1d
.	2d\
.	2c\
=100	=100
1E	1B
2F\	1A
2F\	.
=101	=101
2F\	1r
4E\	.
4D\	.
1E	2r
.	2G/
=102	=102
1D	2A/
.	2F/
1GG	2G/
.	[2d\
=103	=103
2r	4d\]
.	4c\
2.A\	4A/
.	4B\
.	2.c\
4G\	.
4E\	.
4F\	4B\
=104	=104
2G\	4G/
.	4A/
2D\	4B\
.	4c\
2F\	2d\
2G\	2G/
=105	=105
2D\	2A/
2BB/	2B\
2C/	1A
2D\	.
=106	=106
0GG	0G
=107	=107
1r	1r
1G	1B
=108	=108
1E	1B
1G	1B
=109	=109
0D	0A
=110	=110
2r	0r
2GG/	.
[1C	.
=111	=111
2C/]	0r
2BB/	.
2AA/	.
[2AA/	.
=112	=112
2AA/]	0r
2GG/	.
2AA/	.
2C/	.
=113	=113
1BB	0r
1AA	.
=114	=114
1E	0r
2AA/	.
[2A\	.
=115	=115
2A\]	2r
2G\	2G/
1A	[1c
=116	=116
1E	2c\]
.	2B\
2r	2A/
2AA/	[2A/
=117	=117
1E	2A/]
.	2G/
1F	1A
=118	=118
1E	1B
1C	1c
=119	=119
1D	1A
1GG	1G
=120	=120
0AA	2.F/
.	4G/
.	1E
=121	=121
1D	1D
1GG	2r
.	2D/
=122	=122
2r	2G/
2GG/	2G/
2GG/	2G/
2GG/	2A/
=123	=123
2G\	1.B
4F\	.
4E\	.
1D	.
.	4A/
.	4B\
=124	=124
1.C	1.c
[2G\	[2B\
=125	=125
2G\]	4B\]
.	4A/
2E\	1G
1D	.
.	2F#i/
=126	=126
1GG	2G/
.	1.B
2r	.
2GG/	.
=127	=127
2C/	2A/
2C/	2A/
2BB/	2G/
2BB/	[2G/
=128	=128
2AA/	4G/]
.	4F/
2AA/	4F/
.	4E/
2GG/	2G/
2F\	2A/
=129	=129
2G\	2B\
2C/	2c\
2D\	2A/
2F\	2F/
=130	=130
1E	1G
1D	1A
=131	=131
0GG;l	0Gl
==	==
*-	*-
!!!RDF**kern: l=long note in original notation
!!!RDF**kern: i=editorial accidental
!!!RDF**kern: V=start of tuplet marker
!!!RDF**kern: Z=end of tuplet marker
!!!ENC:	Reinier de Valk; Victoria Chang 2012/03/28
!!!END:	2012/03/28/
!!!EED:	Jesse Rodin
!!!EEV:	2012/06/27/
!!attribution-level@Jos: 4 (questionable)
!!!ONB:	Translated from MusicXML and edited on 2012/06/27/ by Craig Sapp
!!muse2ps: T^@{OPR}^u^@{ONM}{. }@{OTL}^C^@{COA}?\n@{SCT}^i2I150v95,150Q8
